X:26
T:Donald MacKay of Upper Bravas 
C:Joe Buchanan's Scottish Tome - Page 367.0
I:367 0
C:M. C. & A. MacKay
Z:Carl Allison
R:Barndance
L:1/8
M:2/4
K:A
A/>B/ | "A"cB/>A/ "F#m"fe/<c/ | "E7"ef/>e/ "A"cf/>e/ | cB/<A/ "F#m"f/>e/c/<A/ | "Bm"B/>c/B/<A/ "D"FA/>B/ |
"A"c/<e/e/>f/ cB/<A/ | "A"c/<A/"A7"/c/<e/ "D"fe/>f/ | "A"ae/<a/ fe/<c/ | BA "A"A :|
f/>g/ | "A"a/>e/f/<a/ f/>e/c/<e/ | "F#m"A/<a/f/>e/ "A"cf/>g/ | "A"a/>e/f/>e/ "F#m"A/<A/f/>e/ | c/>B/c/<A/ "D"FA/>B/ |
"A"c/<e/e/>f/ cB/>A/ | "A7"A/<A/a/>e/ "D"fe/>f/ | "A"ae/<a/ "F#m"fe/><c/ | "E7"BA "A"A :|
f/>e/ | "A"c/>B/c/<A/ A/<A/f/>e/ | "D"f/<a/f/>e/ "A"cA/>c/ | f/>e/c/>e/ A/<A/f/>e/ | c/>B/c/<A/ "D"FA/>B/ |
"A"c/<e/e/>f/ a/>f/e/<f/ | "A7"A/<A/c/<e/ "D"fe/<f/ | "A"ae/<a/ "F#m"fe/<c/ | "E7"BA "A"A :|
f/>g/ | "A"a/>e/f/<a/ "F#m"fe/>c/ | "W7"ef/>e/ ""c>e | "D"f/>e/f/<a/ "F#m"f/>e/c/>A/ | "Bm"B/>c/B/<A/ "D"FA/>B/ |
"A"c/<e/e/>f/ cB/<A/ | "A7"A/<A/a/>e/ "D"fe/>f/ | "A"ae/<a/ "F#m"fe/<c/ | "E7"BA "A"Af/>g/ |
"A"a/e/f/a/ "F#m"fe/>c/ | "E7"ef/>e/ "A"c>e | "D"f/>e/f/<a/ "F#m"f/>e/c/>A/ | "Bm"B/>c/B/<A/ "D"FA/>B/ |
"A"c/<e/e/>f/ c/>B/c/<A/ | "A7"A/<A/c/>e/ "D"fe/>f/ | "A"ae/>a/ "F#m"fe/>c/ | "E7"BA "A"A |]

